X:1
T:Sanctus de Lourdes
T:Sanctus de Lourdes
T:JP Lécot
T:JP Lécot
C:JP Lécot
Z:JP Lécot
%%score [ 1 2 3 4 ]
L:1/8
Q:1/4=76
M:4/4
K:A
V:1 treble nm="Soprano" snm="S."
V:2 treble nm="Alto" snm="A."
V:3 treble-8 nm="Tenor" snm="T."
V:4 bass nm="Bass" snm="B."
V:1
"^version 1 - soliste puis tous" E4 | E4 A4 | A4 B2 cd | c2 BA B3 B | c4 || c2 c2 | e2 e2 d3 c | %7
w: r.Dieu|Saint, Dieu|fort, Dieu im- mor-|tel, bé- nit soit Ton|nom!|1.Ciel et|ter- re sont rem-|
w: |||||2.Bé- ni|soit ce- lui qui|
 B4 (A2 A2) | (F4 G2 A2) | B4 z4 |:"^version 2" E4 !breath!E4 | A4 !breath!A4 | (B2 cd) (c2 BA) | %13
w: plis de ta|gloi _ _|re!|r.Sanc- tus|Sanc- tus|Sanc _ _ tus _ _|
w: vient au _|Nom du Sei-|gneur!||||
 B3 B !breath!c4 | c2 (cc) e2 (ee) | (d3 c) B2 B2 | (AA) AA (F4 | G2 A2) B4 :| %18
w: Do- mi- nus!|1.Ple- ni sunt coe- li et|ter _ ra _|glo _ ri- a Tu|_ _ a!|
w: |2.Be- ne _ dic- tus _|qui _ ve- nit|in no- mi- ne Do|_ mi- num!|
V:2
 E4 | E4 F4 | F4 G2 AA | A2 AA (A2 G)G | A4 || A2 A2 | G2 G2 A3 A | G4 (F2 E2) | (D4 E2 ^D2) | %9
w: |||||||||
w: |||||||||
 E4 z4 |: E4 !breath!E4 | F4 !breath!F4 | (G2 A2) A4 | (A2 G)G !breath!A4 | A2 (AA) G2 (GG) | %15
w: |r.Sanc- tus,|Sanc- tus,|Sanc _ tus|Do _ mi- nus!|1.Ple- ni sunt coe- li et|
w: |||||2.Be- ne _ dic- tus _|
 A4 G2 G2 | (FF) EE (D4 | E2 ^D2) E4 :| %18
w: ter- ra _|glo _ ri- a Tu|_ _ a!|
w: qui ve- nit|in no- mi- ne Do|_ mi- num!|
V:3
 c4 | B4 c4 | d4 d2 ee | f2 ff B3 B | e4 || e2 e2 | e2 e2 f3 d | e4 (c2 A2) | (A4 B2 B2) | B4 z4 |: %10
w: r.Dieu|Saint, Dieu|fort, Dieu im- mor-|tel bé- nit soit Ton|nom!|1.Ciel et|ter- re sont rem-|plis de ta|gloi _ _|re!|
w: |||||2.Bé- ni|soit ce- lui qui|vient au _|Nom du Sei-|gneur!|
 c4 !breath!B4 | c4 !breath!d4 | (d2 ee) (f2 ff) | B3 B !breath!e4 | e2 (ee) e2 (ed) | %15
w: r.Sanc- tus,|Sanc- tus|Sanc _ _ tus _ _|Do- mi- nus!|1.Ple- ni sunt coe- li et|
w: ||||2.Be- ne _ dic- tus _|
 (f3 d) (e2 e2) | (cc) AA (A4 | B2 B2) B4 :| %18
w: ter _ ra _|glo _ ri- a Tu|_ _ a!|
w: qui _ ve- nit|in no- mi- ne Do|_ mi- num!|
V:4
 A,4 | G,4 (F,2 E,2) | (D,2 C,2) B,,2 A,,A,, | D,2 D,D, (^D,2 E,)E, | [A,,A,]4 || A,2 A,2 | %6
w: ||||||
w: ||||||
 C2 C2 B,2 A,A, | E,4 (F,2 C,2) | (B,,4 E,2 F,2) | G,4 z4 |: A,4 !breath!G,4 | %11
w: ||||r.Sanc- tus,|
w: |||||
 (F,2 E,2) (D,2 !breath!C,2) | (B,,2 A,,A,,) (D,2 D,D,) | (^D,2 E,)E, !breath![A,,A,]4 | %14
w: San _ tus _|Sanc _ _ tus _ _|Do _ mi- nus!|
w: |||
 A,2 (A,A,) C2 (CC) | (B,2 A,2) (E,2 E,2) | (F,F,) C,C, (B,,4 | E,2 F,2) G,4 :| %18
w: 1.Ple- ni sunt coe- li et|ter _ ra _|glo _ ri- a Tu|_ _ a!|
w: 2.Be- ne _ dic- tus _|qui _ ve- nit|in no- mi- ne Do|_ mi- num!|

